src/icons/puppeteer.svg

<svg version="1.1" viewBox="0 0 24 24" xml:space="preserve" xmlns="http://www.w3.org/2000/svg"><path d="m2.8224 19.073q-0.15938 0-0.15938-0.2922l-0.013282-2.1383q0-0.15938 0.013282-0.17266 0.066409-0.19923 3.3071-2.2978 3.2407-2.0852 3.254-2.1517-0.17267-0.23907-3.4134-2.3509-3.1477-2.0321-3.1477-2.2313v-2.2048q0-0.30548 0.2125-0.30548h1.9126q0.25235 0 3.5595 2.497 3.3204 2.497 3.586 2.497 0.2922 0 3.6392-2.4837 3.347-2.4837 3.5462-2.4837h2.0454q0.18594 0 0.18594 0.3586 0 0.37189-0.02657 1.1157t-0.02657 1.1157q0 0.066409-0.61095 0.49142-1.9657 1.2484-5.8705 3.7719-0.09297 0.06641-0.19922 0.22579 0.09297 0.18594 3.4134 2.2977 3.2673 2.0852 3.2673 2.2711v2.0985q0 0.34532-0.18594 0.34532h-2.0454q-0.33204 0-3.6259-2.4837-3.2938-2.4704-3.4665-2.4704-0.2125 0-3.6126 2.4837-3.3868 2.497-3.6259 2.497z" fill="#00bfa5" stroke-width=".72859" aria-label="X"/></svg>

<svg viewBox="0 0 24 24" xmlns="http://www.w3.org/2000/svg">
  <path
    d="M2.82256 19.073C2.71631 19.073 2.66318 18.9756 2.66318 18.7808L2.6499 16.6425C2.6499 16.5362 2.65433 16.4787 2.66318 16.4698C2.70746 16.337 3.80982 15.5711 5.97028 14.172C8.13075 12.7819 9.21542 12.0647 9.22428 12.0203C9.10917 11.861 7.97137 11.0773 5.81088 9.66944C3.71242 8.3147 2.66318 7.57094 2.66318 7.43814V5.23334C2.66318 5.02968 2.73402 4.92786 2.87568 4.92786H4.78828C4.95652 4.92786 6.14302 5.76019 8.34778 7.42486C10.5614 9.08952 11.7567 9.92186 11.9338 9.92186C12.1286 9.92186 13.3417 9.09396 15.573 7.43816C17.8043 5.78236 18.9864 4.95446 19.1192 4.95446H21.1646C21.2885 4.95446 21.3505 5.07399 21.3505 5.31306C21.3505 5.56098 21.3417 5.93288 21.324 6.42876C21.3062 6.92463 21.2974 7.29653 21.2974 7.54446C21.2974 7.58873 21.0937 7.75254 20.6864 8.03588C19.376 8.86814 17.4191 10.1254 14.8159 11.8078C14.754 11.8521 14.6875 11.9273 14.6167 12.0336C14.6787 12.1575 15.8165 12.9234 18.0301 14.3313C20.2083 15.7214 21.2974 16.4784 21.2974 16.6024V18.7009C21.2974 18.9311 21.2354 19.0462 21.1115 19.0462H19.0661C18.8447 19.0462 17.6361 18.2183 15.4402 16.5625C13.2443 14.9156 12.0888 14.0921 11.9737 14.0921C11.832 14.0921 10.6278 14.92 8.36107 16.5758C6.10321 18.2405 4.89457 19.0728 4.73517 19.0728L2.82256 19.073Z"
    fill="#00BFA5"
  />
</svg>
